; Generated by Autodesk Torpedo Date: 2016 12 19 Time: 18 24
; --------------------------------
; Selected Profile: Printrbot Play, Draft
; Selected Printer: Printrbot, Printrbot Play, Draft
; --------------------------------
G21; set units to millimeters
G90; use absolute spatial coordinates
M82; use absolute extrusion coordinates
G28 Z0.000
G1 Z10.000 F1800; lower build plate before homing
G28 X0.000 Y100.000
M104 S220 T0; begin nozzle temperature change
M109 S220 T0; wait for nozzle to reach temperature
G1 Y0.000 Z0.000 F4800; go to origin
G92 E0; reset extrusion dist
; custom start gcode
G28 X0 Y0 Z0; home all axes
G29; Bed Probe for Z
G1 Z10 F4000
; --------------------------------
; Layer 0
M106 S0; turn off fan
; rapid-leaky
G1 X3.000 Y3.400 Z0.300; rapid
; bead-prime
G1 X97.000 E9.37936 F900
; rapid-dry
G1 E8.37936 F1200; retract filament
G1 X53.673 Y38.982 F4800; rapid
G1 E9.37936 F1200; engage filament
; bead-skirt/brim
G1 Y51.182 E9.98802
G1 X41.473 E10.59668
G1 Y38.982 E11.20534
G1 X53.673 E11.81400
; rapid-leaky
G1 X53.273 Y39.382 F4800; rapid
; bead-skirt/brim
G1 Y50.782 E12.38275 F1200
G1 X41.873 E12.95150
G1 Y39.382 E13.52024
G1 X53.273 E14.08899
; rapid-dry
G1 E13.08899 F1200; retract filament
G1 X47.873 Y44.782 F4800; rapid
G1 E14.08899 F1200; engage filament
; bead-perimeter_outer
G1 Y45.382 E14.11893 F900
G1 X47.273 E14.14886
G1 Y44.782 E14.17880
G1 X47.873 E14.20873
; layer complete
; Layer 1
M106 S255; turn on fan
; rapid-leaky
G1 Z0.600 F4800; rapid
; bead-perimeter_outer
G1 Y45.382 E14.23867 F1200
G1 X47.273 E14.26860
G1 Y44.782 E14.29854
G1 X47.873 E14.32847
; layer complete
; Layer 2
; rapid-leaky
G1 Z0.900 F4800; rapid
; bead-perimeter_outer
G1 Y45.382 E14.35841 F1200
G1 X47.273 E14.38834
G1 Y44.782 E14.41827
G1 X47.873 E14.44821
; layer complete
; move to park position
G1 E13.44821 F1200; retract filament
G1 Z10.900 F4800; rapid
G1 X10.000 Y90.000; rapid
G1 E14.44821 F1200; engage filament
; --------------------------------
M106 S0; turn off the fan
M104 S0 T0; disable nozzle heat
M84; disable the motors
; --------------------------------
; PROJECT SETTINGS:
; 100x100_id: "data/printrbotplay_100x100.png"
; 16x16_id: "data/printrbotplay_16x16.png"
; 32x32_id: "data/printrbotplay_32x32.png"
; 50x50_id: "data/printrbotplay_50x50.png"
; _files: [  ]
; always_retract_between_layers: True
; bed_file_id: "data/printrbotplay.zip"
; bed_offset: [ 5, 5, 0 ]
; bed_size: [ 10, 10, 13 ]
; bed_temp_max: 0
; bridge_anchor_depth: 0.08
; bridge_anchor_depth_min: 0.02
; bridge_extrusion_width_multiplier: 1
; bridge_max_length: 0.3
; bridge_test_angle_spacing: 0.017453
; bridge_test_angle_spacing_coarse: 0.087266
; bridge_test_line_spacing: 0.5
; bridge_test_line_spacing_coarse: 1
; bridging_enabled: True
; connect_fill_wet_min_angle: 0.1309
; connect_fill_wet_move: True
; constrain_to_bed: True
; content: "application/gcode"
; cross_solid_fill_dry_move: True
; cross_sparse_fill_leaky_move: True
; default_material_id: "081011F3-4DE4-4580-9456-5F862DCAC3F0"
; default_profile_id: "9982876C-5FF0-492A-8F76-4E4BAF17CA1F"
; disable_fan_first_layers: 1
; downsample_min_length: 0.001
; dry_run: False
; ePrecision: 5
; e_speed_max: 2
; end_gcode: ""
; extension: "gcode"
; extrude_rate_max: 4
; extrusion_width: 0.04
; extrusion_width_first_layer_multiplier: 1
; extrusion_width_infill_multiplier: 1
; extrusion_width_multiplier: 1
; extrusion_width_perimeters_multiplier: 1
; extrusion_width_support_multiplier: 1
; fPrecision: 0
; filament_diameter: 0.175
; generates_supports: False
; has_fan: True
; home_position: [ 0, 10, 0 ]
; id: "0AA54136-3C7F-4C81-9664-61878A762627"
; layer_change_gcode: ""
; layer_height: 0.03
; layer_height_first: 0.03
; manufacturer: "Printrbot"
; material_id: "081011F3-4DE4-4580-9456-5F862DCAC3F0"
; material_name: "PLA 1.75 mm"
; materials: [  ]
; max_materials: 1
; min_fill_length: 0.01
; min_layer_time: 10
; model_number: "1.0.0"
; mult_materials_single_filament: False
; name: "Printrbot Play, Draft"
; nozzle_diameter: 0.04
; nozzle_extra_length_on_restart: 0
; nozzle_lift_z: 0
; nozzle_max_volume_per_sec: 150
; nozzle_min_travel_on_retraction: 0.3
; nozzle_offset: [ 0, 0, 0 ]
; nozzle_retract_speed: 3
; nozzle_retraction_length: 0.1
; nozzle_temp_max: 240
; numLayers: 4
; num_bottom_shells: 3
; num_extruders: 1
; num_perimeters: 2
; num_top_shells: 3
; oozewall_dist_from_model: 0.3
; oozewall_edge_length: 0.5
; oozewall_enabled: True
; oozewall_first_layer_extrusion_multiplier: 5
; oozewall_low_xy_corner: False
; oozewall_weave_amplitude: 0.1
; oozewall_weave_num_points: 5
; oozewall_weave_pitch: 0.3
; park_position: [ 1, 9, 0 ]
; perim_wipe_fwd_distance: 0.3
; perim_wipe_fwd_speed: 4
; perim_wipe_rev_distance: 0.4
; perim_wipe_rev_speed: 5
; perimeter_overlap_ratio: 0.0875
; perimeters_inner_first: True
; preferred_connection: "serial"
; prime_edge_clearance: 0.3
; prime_enabled: True
; prime_extrusion_multiplier: 2
; printer_id: "8D586473-C1A9-451B-A129-2425357C6428"
; printer_types: [  ]
; profile_order: [  ]
; raft_base_angle: 0
; raft_base_density: 70
; raft_base_do_zigzag: True
; raft_base_extrusion_width_multiplier: 6
; raft_base_gap_dist: 0.19
; raft_base_layer_height: 0.03
; raft_base_num_layers: 1
; raft_base_num_perimeters: 0
; raft_base_run_dist: 1.5
; raft_base_turn_dist: 0.4
; raft_enabled: False
; raft_first_layer_speed: 0.56
; raft_interface_angle: 0.785398
; raft_interface_density: 30
; raft_interface_extrusion_width: 0.04
; raft_interface_extrusion_width_multiplier: 1
; raft_interface_layer_height: 0.02
; raft_interface_num_layers: 1
; raft_interface_num_perimeters: 0
; raft_num_bottom_layers: 3
; raft_other_layers_speed: 7
; raft_outer_border: 0.5
; raft_surface_angle: 0
; raft_surface_density: 100
; raft_surface_extrusion_width_multiplier: 1
; raft_surface_layer_height: 0.03
; raft_surface_num_layers: 2
; raft_surface_num_perimeters: 2
; raft_zbump: 0.03
; retraction_length: 0.1
; retraction_speed: 2
; skirt_distance: 0.5
; skirt_layers: 1
; skirt_loops: 2
; skirt_minimum_extrusion_length: 0
; skirt_num_bottom_layers: 5
; solid_infill_angle: 0.785398
; solid_infill_overlap_distance: 0.2
; solid_infill_pattern: "Rectilinear"
; sparse_infill_angle: 0.785398
; sparse_infill_density: 5
; sparse_infill_pattern: "Rectilinear"
; speed_bridge: 3
; speed_extrude_minimum: 2
; speed_first_layer_multiplier: 0.5
; speed_perimeters_external: 3
; speed_perimeters_internal: 4
; speed_solid_infill: 3
; speed_sparse_infill: 4
; speed_support_material: 4
; speed_travel: 8
; start_gcode: "G28 X0 Y0 Z0; home all axes
; G29; Bed Probe for Z
; G1 Z10 F4000"
; support_infill_angle: 0.785398
; support_infill_density: 15
; support_infill_pattern: "Rectilinear"
; support_num_perimeters: 2
; supported_connections: [  ]
; technology: "FDM"
; temp_bed: 0
; temp_extruder_default: 220
; thumbnail: "none"
; tool_change_retract_length: 0.19
; tool_change_retract_speed: 0.75
; tp_support_bridge_len: 0.8
; tp_support_enabled: False
; tp_support_extrusion_width_multiplier_fill_interface: 0.5
; tp_support_extrusion_width_multiplier_shell_interface: 0.5
; tp_support_extrusion_width_multiplier_structure: 0.75
; tp_support_fill_interface_zmash: 0
; tp_support_infill_anchor: 0.08
; tp_support_infill_zbump: 0.03
; tp_support_object_margin: 0.08
; tp_support_object_zbump: 0.03
; tp_support_overhang_angle: 1.18682
; tp_support_seam_width: 0.1
; tp_support_shell_inner_offset_ratio: 0.7
; tp_support_shell_interface_zmash: 0
; tp_support_shell_outer_offset_ratio: 0.9
; tp_support_support_margin: 0.08
; tp_support_supported_anchor_zbump: 0.01
; tp_support_supported_perimeter_zbump: 0.02
; travel_feed_rate: 8
; type: "Marlin"
; url: "http://printrbot.com"
; verbose_gcode: True
; version: 1
; x: 8
; xyPrecision: 3
; xy_speed_max: 8
; y: 8
; z: 0.01
; zPrecision: 3
; z_axis_feed_rate: 3
; z_speed_max: 0.01
; END SETTINGS.
; --------------------------------
